exports/mobile-and-fixed-landline-telephone-subscriptions_v1_850x600.svg

<svg xmlns="http://www.w3.org/2000/svg" version="1.1" style="background-color:#fff;-webkit-font-smoothing:antialiased" width="850" height="600" font-family="'Helvetica Neue',Helvetica,Arial,sans-serif" font-size="18" text-rendering="optimizeLegibility"><g class="ChartTab"><g class="HeaderView"><g opacity=".8" transform="matrix(.31 0 0 .31 770 15)"><a xmlns:xlink="http://www.w3.org/1999/xlink" xlink:href="https://ourworldindata.org" target="_blank"><g><path fill="#1B2543" d="M0 0h211.2v130.1H0z"/><path fill="#E63912" d="M0 112.2h211.2v17.9H0z"/><g><path fill="none" d="M1.2 12.3h210.2v99.2H1.2z"/><path fill="#FFF" d="M37.8 32.2c0 12.7-7.7 19.4-17.1 19.4-9.7 0-16.6-7.5-16.6-18.7 0-11.7 7.3-19.3 17.1-19.3 10.1.1 16.6 7.7 16.6 18.6zm-28.6.6c0 7.9 4.3 14.9 11.8 14.9 7.5 0 11.8-6.9 11.8-15.3 0-7.3-3.8-14.9-11.8-14.9-7.9 0-11.8 7.3-11.8 15.3zM62.7 43.8c0 2.7.1 5.1.2 7.2h-4.3l-.3-4.3h-.1c-1.3 2.1-4 4.9-8.8 4.9-4.2 0-9.1-2.3-9.1-11.6V24.6h4.8v14.6c0 5 1.5 8.4 5.9 8.4 3.2 0 5.5-2.2 6.3-4.4.3-.7.4-1.6.4-2.5V24.6h4.8v19.2zM67.3 32.8c0-3.1-.1-5.8-.2-8.2h4.2l.2 5.2h.2c1.2-3.5 4.1-5.8 7.3-5.8.5 0 .9.1 1.4.2v4.5c-.5-.1-1-.2-1.6-.2-3.4 0-5.8 2.6-6.5 6.2-.1.7-.2 1.4-.2 2.2V51h-4.8V32.8zM95.4 51L86 14.2h5l4.4 18.6c1.1 4.6 2.1 9.2 2.7 12.7h.1c.6-3.7 1.8-8 3-12.8l4.9-18.5h5l4.5 18.7c1 4.4 2 8.7 2.6 12.6h.1c.8-4 1.8-8.1 3-12.7l4.9-18.5h4.9L120.6 51h-5L111 31.9c-1.1-4.7-1.9-8.3-2.4-12h-.1c-.7 3.7-1.5 7.3-2.8 12L100.4 51h-5zM154.9 37.6c0 9.8-6.8 14-13.2 14-7.2 0-12.7-5.2-12.7-13.6 0-8.8 5.8-14 13.1-14 7.7 0 12.8 5.5 12.8 13.6zm-21 .3c0 5.8 3.3 10.1 8 10.1 4.6 0 8-4.3 8-10.3 0-4.5-2.2-10.1-7.9-10.1s-8.1 5.2-8.1 10.3zM158.2 32.8c0-3.1-.1-5.8-.2-8.2h4.2l.2 5.2h.2c1.2-3.5 4.1-5.8 7.3-5.8.5 0 .9.1 1.4.2v4.5c-.5-.1-1-.2-1.6-.2-3.4 0-5.8 2.6-6.5 6.2-.1.7-.2 1.4-.2 2.2V51h-4.8V32.8zM173.5 12.3h4.8V51h-4.8V12.3zM206.5 12.3v31.9c0 2.3.1 5 .2 6.8h-4.3l-.2-4.6h-.2c-1.5 2.9-4.7 5.2-9 5.2-6.4 0-11.3-5.4-11.3-13.4-.1-8.8 5.4-14.2 11.9-14.2 4 0 6.8 1.9 8 4h.1V12.3h4.8zm-4.8 23.1c0-.6-.1-1.4-.2-2a7 7 0 00-6.9-5.6c-5 0-7.9 4.4-7.9 10.2 0 5.3 2.6 9.8 7.8 9.8 3.2 0 6.2-2.1 7.1-5.7.2-.7.2-1.3.2-2.1v-4.6zM42.8 64c.1 1.6-1.1 2.9-3.1 2.9-1.7 0-2.9-1.3-2.9-2.9 0-1.7 1.3-3 3-3 1.9 0 3 1.3 3 3zm-5.4 33.8V71.4h4.8v26.4h-4.8zM47.5 78.6c0-2.7-.1-5-.2-7.1h4.3l.3 4.4h.1c1.3-2.5 4.4-5 8.8-5 3.7 0 9.4 2.2 9.4 11.2v15.8h-4.8V82.6c0-4.3-1.6-7.8-6.1-7.8-3.2 0-5.6 2.2-6.5 4.9-.2.6-.3 1.4-.3 2.2v15.9h-4.8V78.6zM84 61.6c2.9-.4 6.3-.8 10.1-.8 6.8 0 11.7 1.6 14.9 4.6 3.3 3 5.2 7.3 5.2 13.2 0 6-1.9 10.9-5.3 14.3-3.4 3.4-9.1 5.3-16.3 5.3-3.4 0-6.2-.2-8.6-.4V61.6zm4.8 32.5c1.2.2 3 .3 4.8.3 10.2 0 15.7-5.7 15.7-15.6.1-8.7-4.9-14.2-14.9-14.2-2.5 0-4.3.2-5.6.5v29zM132.1 97.8l-.4-3.3h-.2a9.79 9.79 0 01-8.1 3.9c-5.4 0-8.1-3.8-8.1-7.6 0-6.4 5.7-9.9 15.9-9.8v-.5c0-2.2-.6-6.1-6-6.1-2.5 0-5 .8-6.9 2l-1.1-3.2c2.2-1.4 5.4-2.3 8.7-2.3 8.1 0 10.1 5.5 10.1 10.8v9.9c0 2.3.1 4.5.4 6.3h-4.3zm-.7-13.4c-5.3-.1-11.2.8-11.2 5.9 0 3.1 2.1 4.6 4.5 4.6 3.4 0 5.6-2.2 6.4-4.4.2-.5.3-1 .3-1.5v-4.6zM146.6 63.9v7.6h6.9v3.7h-6.9v14.2c0 3.3.9 5.1 3.6 5.1 1.3 0 2.2-.2 2.8-.3l.2 3.6c-.9.4-2.4.7-4.3.7-2.2 0-4-.7-5.2-2-1.4-1.4-1.9-3.8-1.9-6.9V75.1h-4.1v-3.7h4.1v-6.3l4.8-1.2zM171.4 97.8l-.4-3.3h-.2a9.79 9.79 0 01-8.1 3.9c-5.4 0-8.1-3.8-8.1-7.6 0-6.4 5.7-9.9 15.9-9.8v-.5c0-2.2-.6-6.1-6-6.1-2.5 0-5 .8-6.9 2l-1.1-3.2c2.2-1.4 5.4-2.3 8.7-2.3 8.1 0 10.1 5.5 10.1 10.8v9.9c0 2.3.1 4.5.4 6.3h-4.3zm-.7-13.4c-5.3-.1-11.2.8-11.2 5.9 0 3.1 2.1 4.6 4.5 4.6 3.4 0 5.6-2.2 6.4-4.4.2-.5.3-1 .3-1.5v-4.6z"/></g></g></a></g><a href="https://ourworldindata.org/grapher/mobile-and-fixed-landline-telephone-subscriptions" target="_blank"><text font-size="24.3" x="15" y="34.4" fill="#555"><tspan x="15" y="34.44">Mobile and fixed landline telephone subscriptions, United Kingdom</tspan></text></a><text font-size="14.4" x="15" y="52.8" fill="#666"><tspan x="15" y="52.82">The number of fixed landline telephone and mobile cellular phone subscriptions, measured per 100 people.</tspan></text></g><g class="LineChart"><defs><clipPath id="a"><path d="M37.22 0h830v961.6h-830z"/></clipPath></defs><g class="AxisBoxView"><g class="HorizontalAxis" fill="#666" text-anchor="middle" font-size="16.2"><text x="47.2" y="556.5">1960</text><text x="140.6" y="556.5">1970</text><text x="234" y="556.5">1980</text><text x="327.4" y="556.5">1990</text><text x="420.8" y="556.5">2000</text><text x="514.2" y="556.5">2010</text><text x="560.9" y="556.5">2015</text></g><g class="VerticalAxis" fill="#666" dominant-baseline="middle" text-anchor="end" font-size="16.2"><text x="42.22" y="535.3">0</text><text x="42.22" y="461.6">20</text><text x="42.22" y="387.9">40</text><text x="42.22" y="314.3">60</text><text x="42.22" y="240.6">80</text><text x="42.22" y="166.9">100</text><text x="42.22" y="93.2">120</text></g><g class="AxisGridLines"><path stroke="#ccc" d="M47.22 535.3h513.66"/><path stroke="#ddd" stroke-dasharray="3,2" d="M47.22 461.6h513.66M47.22 387.9h513.66M47.22 314.3h513.66M47.22 240.6h513.66M47.22 166.9h513.66M47.22 93.2h513.66"/></g><g class="AxisGridLines" stroke="#ddd" stroke-dasharray="3,2"><path d="M47.2 535.3V75.7M140.6 535.3V75.7M234 535.3V75.7M327.4 535.3V75.7M420.8 535.3V75.7M514.2 535.3V75.7"/></g></g><g clip-path="url(#a)"><g class="HeightedLegend clickable"><g class="legendMark"><path fill="#ca2628" d="M570.88 76.75h10v2.5h-10z"/><text font-size="14.4" x="585.9" y="74.6" fill="#333"><tspan x="585.88" y="74.57">Mobile cellular subscriptions (per 100</tspan><tspan x="585.88" y="90.41">people)</tspan></text></g><g class="legendMark"><path fill="#3360a9" d="M570.88 342.45h10v2.5h-10z"/><text font-size="14.4" x="585.9" y="340.3" fill="#333"><tspan x="585.88" y="340.27">Fixed telephone subscriptions (per 100</tspan><tspan x="585.88" y="356.11">people)</tspan></text></g></g><g class="Lines"><g class="key-United-Kingdom_0"><path stroke="#ca2628" stroke-linecap="round" d="M47 535h243l9-2 10-1 9-3 9-1 10-1 9-1 9-5 10-11 9-11 9-10 10-9 9-38 10-77 9-101 9-17 10-17 9-29 9-32 10-34 9-26 9-20 10-4 9-6 9 1h10l9-4h9l10 4 9-2" fill="none" stroke-width="1.5"/><g fill="#ca2628"><circle cx="47" cy="535" r="2"/><circle cx="94" cy="535" r="2"/><circle cx="141" cy="535" r="2"/><circle cx="187" cy="535" r="2"/><circle cx="197" cy="535" r="2"/><circle cx="206" cy="535" r="2"/><circle cx="215" cy="535" r="2"/><circle cx="225" cy="535" r="2"/><circle cx="234" cy="535" r="2"/><circle cx="243" cy="535" r="2"/><circle cx="253" cy="535" r="2"/><circle cx="262" cy="535" r="2"/><circle cx="271" cy="535" r="2"/><circle cx="281" cy="535" r="2"/><circle cx="290" cy="535" r="2"/><circle cx="299" cy="533" r="2"/><circle cx="309" cy="532" r="2"/><circle cx="318" cy="529" r="2"/><circle cx="327" cy="528" r="2"/><circle cx="337" cy="527" r="2"/><circle cx="346" cy="526" r="2"/><circle cx="355" cy="521" r="2"/><circle cx="365" cy="510" r="2"/><circle cx="374" cy="499" r="2"/><circle cx="383" cy="489" r="2"/><circle cx="393" cy="480" r="2"/><circle cx="402" cy="442" r="2"/><circle cx="412" cy="365" r="2"/><circle cx="421" cy="264" r="2"/><circle cx="430" cy="247" r="2"/><circle cx="440" cy="230" r="2"/><circle cx="449" cy="201" r="2"/><circle cx="458" cy="169" r="2"/><circle cx="468" cy="135" r="2"/><circle cx="477" cy="109" r="2"/><circle cx="486" cy="89" r="2"/><circle cx="496" cy="85" r="2"/><circle cx="505" cy="79" r="2"/><circle cx="514" cy="80" r="2"/><circle cx="524" cy="80" r="2"/><circle cx="533" cy="76" r="2"/><circle cx="542" cy="76" r="2"/><circle cx="552" cy="80" r="2"/><circle cx="561" cy="78" r="2"/></g></g><g class="key-United-Kingdom_2"><path stroke="#3360a9" stroke-linecap="round" d="M47 500l47-9 47-17 46-25 10-5 9-7 9-9 10-6 9-5 9-5 10-2 9-4 9-5 10-4 9-3 9-6 10-6 9-7 9-3 10-3 9-3 9-5 10-6 9-6 9-8 10-7 9-5 10-7 9-7 9 5h10l9 2 9 1 10 4 9 3 9 3 10-3 9 5 9 2 10 2 9 2h9l10 1 9 2" fill="none" stroke-width="1.5"/><g fill="#3360a9"><circle cx="47" cy="500" r="2"/><circle cx="94" cy="491" r="2"/><circle cx="141" cy="474" r="2"/><circle cx="187" cy="449" r="2"/><circle cx="197" cy="444" r="2"/><circle cx="206" cy="437" r="2"/><circle cx="215" cy="428" r="2"/><circle cx="225" cy="422" r="2"/><circle cx="234" cy="417" r="2"/><circle cx="243" cy="412" r="2"/><circle cx="253" cy="410" r="2"/><circle cx="262" cy="406" r="2"/><circle cx="271" cy="401" r="2"/><circle cx="281" cy="397" r="2"/><circle cx="290" cy="394" r="2"/><circle cx="299" cy="388" r="2"/><circle cx="309" cy="382" r="2"/><circle cx="318" cy="375" r="2"/><circle cx="327" cy="372" r="2"/><circle cx="337" cy="369" r="2"/><circle cx="346" cy="366" r="2"/><circle cx="355" cy="361" r="2"/><circle cx="365" cy="355" r="2"/><circle cx="374" cy="349" r="2"/><circle cx="383" cy="341" r="2"/><circle cx="393" cy="334" r="2"/><circle cx="402" cy="329" r="2"/><circle cx="412" cy="322" r="2"/><circle cx="421" cy="315" r="2"/><circle cx="430" cy="320" r="2"/><circle cx="440" cy="320" r="2"/><circle cx="449" cy="322" r="2"/><circle cx="458" cy="323" r="2"/><circle cx="468" cy="327" r="2"/><circle cx="477" cy="330" r="2"/><circle cx="486" cy="333" r="2"/><circle cx="496" cy="330" r="2"/><circle cx="505" cy="335" r="2"/><circle cx="514" cy="337" r="2"/><circle cx="524" cy="339" r="2"/><circle cx="533" cy="341" r="2"/><circle cx="542" cy="341" r="2"/><circle cx="552" cy="342" r="2"/><circle cx="561" cy="344" r="2"/></g></g></g></g></g><g class="SourcesFooter" fill="#777"><g class="clickable" fill="#777"><text font-size="12.6" x="15" y="581.6"><tspan x="15" y="581.58">Source: World Bank, World Development Indicators (WDI)</tspan></text></g><text font-size="12.6" x="527.9" y="581.6"><tspan x="527.94" y="581.58"><a target="_blank" href="https://ourworldindata.org/technology-adoption/" fill="#777">OurWorldInData.org/technology-adoption/</a> • <a href="http://creativecommons.org/licenses/by-sa/4.0/deed.en_US" target="_blank" fill="#777">CC BY-SA</a></tspan></text></g></g></svg>

<svg xmlns="http://www.w3.org/2000/svg" version="1.1" style="font-family: 'Helvetica Neue', Helvetica, Arial, sans-serif; font-size: 18px; background-color: white; text-rendering: optimizeLegibility; -webkit-font-smoothing: antialiased;" width="850" height="600"><g class="ChartTab"><g class="HeaderView"><g opacity="0.8" transform="translate(770, 15) scale(0.31)"><a xmlns:xlink="http://www.w3.org/1999/xlink" xlink:href="https://ourworldindata.org" target="_blank"><g><rect x="0" y="0" fill="#1B2543" width="211.2" height="130.1"/><rect x="0" y="112.2" fill="#E63912" width="211.2" height="17.9"/><g><rect x="1.2" y="12.3" fill="none" width="210.2" height="99.2"/><path fill="#FFFFFF" d="M37.8,32.2c0,12.7-7.7,19.4-17.1,19.4c-9.7,0-16.6-7.5-16.6-18.7c0-11.7,7.3-19.3,17.1-19.3 C31.3,13.7,37.8,21.3,37.8,32.2z M9.2,32.8c0,7.9,4.3,14.9,11.8,14.9c7.5,0,11.8-6.9,11.8-15.3c0-7.3-3.8-14.9-11.8-14.9 C13.1,17.5,9.2,24.8,9.2,32.8z"/><path fill="#FFFFFF" d="M62.7,43.8c0,2.7,0.1,5.1,0.2,7.2h-4.3l-0.3-4.3h-0.1c-1.3,2.1-4,4.9-8.8,4.9c-4.2,0-9.1-2.3-9.1-11.6 V24.6h4.8v14.6c0,5,1.5,8.4,5.9,8.4c3.2,0,5.5-2.2,6.3-4.4c0.3-0.7,0.4-1.6,0.4-2.5V24.6h4.8V43.8z"/><path fill="#FFFFFF" d="M67.3,32.8c0-3.1-0.1-5.8-0.2-8.2h4.2l0.2,5.2h0.2c1.2-3.5,4.1-5.8,7.3-5.8c0.5,0,0.9,0.1,1.4,0.2v4.5 c-0.5-0.1-1-0.2-1.6-0.2c-3.4,0-5.8,2.6-6.5,6.2c-0.1,0.7-0.2,1.4-0.2,2.2V51h-4.8V32.8z"/><path fill="#FFFFFF" d="M95.4,51l-9.4-36.8h5l4.4,18.6c1.1,4.6,2.1,9.2,2.7,12.7h0.1c0.6-3.7,1.8-8,3-12.8l4.9-18.5h5l4.5,18.7 c1,4.4,2,8.7,2.6,12.6h0.1c0.8-4,1.8-8.1,3-12.7l4.9-18.5h4.9L120.6,51h-5L111,31.9c-1.1-4.7-1.9-8.3-2.4-12h-0.1 c-0.7,3.7-1.5,7.3-2.8,12L100.4,51H95.4z"/><path fill="#FFFFFF" d="M154.9,37.6c0,9.8-6.8,14-13.2,14c-7.2,0-12.7-5.2-12.7-13.6c0-8.8,5.8-14,13.1-14 C149.8,24,154.9,29.5,154.9,37.6z M133.9,37.9c0,5.8,3.3,10.1,8,10.1c4.6,0,8-4.3,8-10.3c0-4.5-2.2-10.1-7.9-10.1 C136.3,27.6,133.9,32.8,133.9,37.9z"/><path fill="#FFFFFF" d="M158.2,32.8c0-3.1-0.1-5.8-0.2-8.2h4.2l0.2,5.2h0.2c1.2-3.5,4.1-5.8,7.3-5.8c0.5,0,0.9,0.1,1.4,0.2v4.5 c-0.5-0.1-1-0.2-1.6-0.2c-3.4,0-5.8,2.6-6.5,6.2c-0.1,0.7-0.2,1.4-0.2,2.2V51h-4.8V32.8z"/><path fill="#FFFFFF" d="M173.5,12.3h4.8V51h-4.8V12.3z"/><path fill="#FFFFFF" d="M206.5,12.3v31.9c0,2.3,0.1,5,0.2,6.8h-4.3l-0.2-4.6H202c-1.5,2.9-4.7,5.2-9,5.2 c-6.4,0-11.3-5.4-11.3-13.4c-0.1-8.8,5.4-14.2,11.9-14.2c4,0,6.8,1.9,8,4h0.1V12.3H206.5z M201.7,35.4c0-0.6-0.1-1.4-0.2-2 c-0.7-3.1-3.3-5.6-6.9-5.6c-5,0-7.9,4.4-7.9,10.2c0,5.3,2.6,9.8,7.8,9.8c3.2,0,6.2-2.1,7.1-5.7c0.2-0.7,0.2-1.3,0.2-2.1V35.4z"/><path fill="#FFFFFF" d="M42.8,64c0.1,1.6-1.1,2.9-3.1,2.9c-1.7,0-2.9-1.3-2.9-2.9c0-1.7,1.3-3,3-3C41.7,61,42.8,62.3,42.8,64z M37.4,97.8V71.4h4.8v26.4H37.4z"/><path fill="#FFFFFF" d="M47.5,78.6c0-2.7-0.1-5-0.2-7.1h4.3l0.3,4.4h0.1c1.3-2.5,4.4-5,8.8-5c3.7,0,9.4,2.2,9.4,11.2v15.8h-4.8 V82.6c0-4.3-1.6-7.8-6.1-7.8c-3.2,0-5.6,2.2-6.5,4.9c-0.2,0.6-0.3,1.4-0.3,2.2v15.9h-4.8V78.6z"/><path fill="#FFFFFF" d="M84,61.6c2.9-0.4,6.3-0.8,10.1-0.8c6.8,0,11.7,1.6,14.9,4.6c3.3,3,5.2,7.3,5.2,13.2c0,6-1.9,10.9-5.3,14.3 c-3.4,3.4-9.1,5.3-16.3,5.3c-3.4,0-6.2-0.2-8.6-0.4V61.6z M88.8,94.1c1.2,0.2,3,0.3,4.8,0.3c10.2,0,15.7-5.7,15.7-15.6 c0.1-8.7-4.9-14.2-14.9-14.2c-2.5,0-4.3,0.2-5.6,0.5V94.1z"/><path fill="#FFFFFF" d="M132.1,97.8l-0.4-3.3h-0.2c-1.5,2.1-4.3,3.9-8.1,3.9c-5.4,0-8.1-3.8-8.1-7.6c0-6.4,5.7-9.9,15.9-9.8v-0.5 c0-2.2-0.6-6.1-6-6.1c-2.5,0-5,0.8-6.9,2l-1.1-3.2c2.2-1.4,5.4-2.3,8.7-2.3c8.1,0,10.1,5.5,10.1,10.8v9.9c0,2.3,0.1,4.5,0.4,6.3 H132.1z M131.4,84.4c-5.3-0.1-11.2,0.8-11.2,5.9c0,3.1,2.1,4.6,4.5,4.6c3.4,0,5.6-2.2,6.4-4.4c0.2-0.5,0.3-1,0.3-1.5V84.4z"/><path fill="#FFFFFF" d="M146.6,63.9v7.6h6.9v3.7h-6.9v14.2c0,3.3,0.9,5.1,3.6,5.1c1.3,0,2.2-0.2,2.8-0.3l0.2,3.6 c-0.9,0.4-2.4,0.7-4.3,0.7c-2.2,0-4-0.7-5.2-2c-1.4-1.4-1.9-3.8-1.9-6.9V75.1h-4.1v-3.7h4.1v-6.3L146.6,63.9z"/><path fill="#FFFFFF" d="M171.4,97.8l-0.4-3.3h-0.2c-1.5,2.1-4.3,3.9-8.1,3.9c-5.4,0-8.1-3.8-8.1-7.6c0-6.4,5.7-9.9,15.9-9.8v-0.5 c0-2.2-0.6-6.1-6-6.1c-2.5,0-5,0.8-6.9,2l-1.1-3.2c2.2-1.4,5.4-2.3,8.7-2.3c8.1,0,10.1,5.5,10.1,10.8v9.9c0,2.3,0.1,4.5,0.4,6.3 H171.4z M170.7,84.4c-5.3-0.1-11.2,0.8-11.2,5.9c0,3.1,2.1,4.6,4.5,4.6c3.4,0,5.6-2.2,6.4-4.4c0.2-0.5,0.3-1,0.3-1.5V84.4z"/></g></g></a></g><a href="https://ourworldindata.org/grapher/mobile-and-fixed-landline-telephone-subscriptions" target="_blank"><text font-size="24.30" x="15.0" y="34.4" fill="#555"><tspan x="15" y="34.44">Mobile and fixed landline telephone subscriptions, United Kingdom</tspan></text></a><text font-size="14.40" x="15.0" y="52.8" fill="#666"><tspan x="15" y="52.81999999999999">The number of fixed landline telephone and mobile cellular phone subscriptions, measured per 100 people.</tspan></text></g><g class="LineChart"><defs><clipPath id="boundsClip-716"><rect x="37.216" y="0" width="830" height="961.5999999999999"></rect></clipPath></defs><g class="AxisBoxView"><g class="HorizontalAxis"><text x="47.2" y="556.5" fill="#666" text-anchor="middle" font-size="16.2">1960</text><text x="140.6" y="556.5" fill="#666" text-anchor="middle" font-size="16.2">1970</text><text x="234" y="556.5" fill="#666" text-anchor="middle" font-size="16.2">1980</text><text x="327.4" y="556.5" fill="#666" text-anchor="middle" font-size="16.2">1990</text><text x="420.8" y="556.5" fill="#666" text-anchor="middle" font-size="16.2">2000</text><text x="514.2" y="556.5" fill="#666" text-anchor="middle" font-size="16.2">2010</text><text x="560.9" y="556.5" fill="#666" text-anchor="middle" font-size="16.2">2015</text></g><g class="VerticalAxis"><text x="42.22" y="535.3" fill="#666" dominant-baseline="middle" text-anchor="end" font-size="16.2">0</text><text x="42.22" y="461.6" fill="#666" dominant-baseline="middle" text-anchor="end" font-size="16.2">20</text><text x="42.22" y="387.9" fill="#666" dominant-baseline="middle" text-anchor="end" font-size="16.2">40</text><text x="42.22" y="314.3" fill="#666" dominant-baseline="middle" text-anchor="end" font-size="16.2">60</text><text x="42.22" y="240.6" fill="#666" dominant-baseline="middle" text-anchor="end" font-size="16.2">80</text><text x="42.22" y="166.9" fill="#666" dominant-baseline="middle" text-anchor="end" font-size="16.2">100</text><text x="42.22" y="93.2" fill="#666" dominant-baseline="middle" text-anchor="end" font-size="16.2">120</text></g><g class="AxisGridLines"><line x1="47.22" y1="535.3" x2="560.88" y2="535.3" stroke="#ccc"></line><line x1="47.22" y1="461.6" x2="560.88" y2="461.6" stroke="#ddd" stroke-dasharray="3,2"></line><line x1="47.22" y1="387.9" x2="560.88" y2="387.9" stroke="#ddd" stroke-dasharray="3,2"></line><line x1="47.22" y1="314.3" x2="560.88" y2="314.3" stroke="#ddd" stroke-dasharray="3,2"></line><line x1="47.22" y1="240.6" x2="560.88" y2="240.6" stroke="#ddd" stroke-dasharray="3,2"></line><line x1="47.22" y1="166.9" x2="560.88" y2="166.9" stroke="#ddd" stroke-dasharray="3,2"></line><line x1="47.22" y1="93.2" x2="560.88" y2="93.2" stroke="#ddd" stroke-dasharray="3,2"></line></g><g class="AxisGridLines"><line x1="47.2" y1="535.30" x2="47.2" y2="75.70" stroke="#ddd" stroke-dasharray="3,2"></line><line x1="140.6" y1="535.30" x2="140.6" y2="75.70" stroke="#ddd" stroke-dasharray="3,2"></line><line x1="234" y1="535.30" x2="234" y2="75.70" stroke="#ddd" stroke-dasharray="3,2"></line><line x1="327.4" y1="535.30" x2="327.4" y2="75.70" stroke="#ddd" stroke-dasharray="3,2"></line><line x1="420.8" y1="535.30" x2="420.8" y2="75.70" stroke="#ddd" stroke-dasharray="3,2"></line><line x1="514.2" y1="535.30" x2="514.2" y2="75.70" stroke="#ddd" stroke-dasharray="3,2"></line></g></g><g clip-path="url(#boundsClip-716)"><g class="HeightedLegend clickable"><g class="legendMark"><rect x="570.88" y="63.05" width="253.32000000000002" height="29.900000000000002" fill="#fff" opacity="0"></rect><rect x="570.88" y="76.75" width="10" height="2.5" fill="#ca2628"></rect><text font-size="14.40" x="585.9" y="74.6" fill="#333"><tspan x="585.88" y="74.57000000000001">Mobile cellular subscriptions (per 100</tspan><tspan x="585.88" y="90.41000000000001">people)</tspan></text></g><g class="legendMark"><rect x="570.88" y="328.75" width="264.12" height="29.900000000000002" fill="#fff" opacity="0"></rect><rect x="570.88" y="342.45" width="10" height="2.5" fill="#3360a9"></rect><text font-size="14.40" x="585.9" y="340.3" fill="#333"><tspan x="585.88" y="340.27">Fixed telephone subscriptions (per 100</tspan><tspan x="585.88" y="356.10999999999996">people)</tspan></text></g></g><g class="Lines"><rect x="47" y="76" width="514" height="460" fill="rgba(255,255,255,0)" opacity="0"></rect><g class="key-United-Kingdom_0"><path stroke="#ca2628" stroke-linecap="round" d="M47 535L94 535L141 535L187 535L197 535L206 535L215 535L225 535L234 535L243 535L253 535L262 535L271 535L281 535L290 535L299 533L309 532L318 529L327 528L337 527L346 526L355 521L365 510L374 499L383 489L393 480L402 442L412 365L421 264L430 247L440 230L449 201L458 169L468 135L477 109L486 89L496 85L505 79L514 80L524 80L533 76L542 76L552 80L561 78" fill="none" stroke-width="1.5"></path><g fill="#ca2628"><circle cx="47" cy="535" r="2"></circle><circle cx="94" cy="535" r="2"></circle><circle cx="141" cy="535" r="2"></circle><circle cx="187" cy="535" r="2"></circle><circle cx="197" cy="535" r="2"></circle><circle cx="206" cy="535" r="2"></circle><circle cx="215" cy="535" r="2"></circle><circle cx="225" cy="535" r="2"></circle><circle cx="234" cy="535" r="2"></circle><circle cx="243" cy="535" r="2"></circle><circle cx="253" cy="535" r="2"></circle><circle cx="262" cy="535" r="2"></circle><circle cx="271" cy="535" r="2"></circle><circle cx="281" cy="535" r="2"></circle><circle cx="290" cy="535" r="2"></circle><circle cx="299" cy="533" r="2"></circle><circle cx="309" cy="532" r="2"></circle><circle cx="318" cy="529" r="2"></circle><circle cx="327" cy="528" r="2"></circle><circle cx="337" cy="527" r="2"></circle><circle cx="346" cy="526" r="2"></circle><circle cx="355" cy="521" r="2"></circle><circle cx="365" cy="510" r="2"></circle><circle cx="374" cy="499" r="2"></circle><circle cx="383" cy="489" r="2"></circle><circle cx="393" cy="480" r="2"></circle><circle cx="402" cy="442" r="2"></circle><circle cx="412" cy="365" r="2"></circle><circle cx="421" cy="264" r="2"></circle><circle cx="430" cy="247" r="2"></circle><circle cx="440" cy="230" r="2"></circle><circle cx="449" cy="201" r="2"></circle><circle cx="458" cy="169" r="2"></circle><circle cx="468" cy="135" r="2"></circle><circle cx="477" cy="109" r="2"></circle><circle cx="486" cy="89" r="2"></circle><circle cx="496" cy="85" r="2"></circle><circle cx="505" cy="79" r="2"></circle><circle cx="514" cy="80" r="2"></circle><circle cx="524" cy="80" r="2"></circle><circle cx="533" cy="76" r="2"></circle><circle cx="542" cy="76" r="2"></circle><circle cx="552" cy="80" r="2"></circle><circle cx="561" cy="78" r="2"></circle></g></g><g class="key-United-Kingdom_2"><path stroke="#3360a9" stroke-linecap="round" d="M47 500L94 491L141 474L187 449L197 444L206 437L215 428L225 422L234 417L243 412L253 410L262 406L271 401L281 397L290 394L299 388L309 382L318 375L327 372L337 369L346 366L355 361L365 355L374 349L383 341L393 334L402 329L412 322L421 315L430 320L440 320L449 322L458 323L468 327L477 330L486 333L496 330L505 335L514 337L524 339L533 341L542 341L552 342L561 344" fill="none" stroke-width="1.5"></path><g fill="#3360a9"><circle cx="47" cy="500" r="2"></circle><circle cx="94" cy="491" r="2"></circle><circle cx="141" cy="474" r="2"></circle><circle cx="187" cy="449" r="2"></circle><circle cx="197" cy="444" r="2"></circle><circle cx="206" cy="437" r="2"></circle><circle cx="215" cy="428" r="2"></circle><circle cx="225" cy="422" r="2"></circle><circle cx="234" cy="417" r="2"></circle><circle cx="243" cy="412" r="2"></circle><circle cx="253" cy="410" r="2"></circle><circle cx="262" cy="406" r="2"></circle><circle cx="271" cy="401" r="2"></circle><circle cx="281" cy="397" r="2"></circle><circle cx="290" cy="394" r="2"></circle><circle cx="299" cy="388" r="2"></circle><circle cx="309" cy="382" r="2"></circle><circle cx="318" cy="375" r="2"></circle><circle cx="327" cy="372" r="2"></circle><circle cx="337" cy="369" r="2"></circle><circle cx="346" cy="366" r="2"></circle><circle cx="355" cy="361" r="2"></circle><circle cx="365" cy="355" r="2"></circle><circle cx="374" cy="349" r="2"></circle><circle cx="383" cy="341" r="2"></circle><circle cx="393" cy="334" r="2"></circle><circle cx="402" cy="329" r="2"></circle><circle cx="412" cy="322" r="2"></circle><circle cx="421" cy="315" r="2"></circle><circle cx="430" cy="320" r="2"></circle><circle cx="440" cy="320" r="2"></circle><circle cx="449" cy="322" r="2"></circle><circle cx="458" cy="323" r="2"></circle><circle cx="468" cy="327" r="2"></circle><circle cx="477" cy="330" r="2"></circle><circle cx="486" cy="333" r="2"></circle><circle cx="496" cy="330" r="2"></circle><circle cx="505" cy="335" r="2"></circle><circle cx="514" cy="337" r="2"></circle><circle cx="524" cy="339" r="2"></circle><circle cx="533" cy="341" r="2"></circle><circle cx="542" cy="341" r="2"></circle><circle cx="552" cy="342" r="2"></circle><circle cx="561" cy="344" r="2"></circle></g></g></g></g></g><g style="fill: #777;" class="SourcesFooter"><g style="fill: #777;" class="clickable"><text font-size="12.60" x="15.0" y="581.6"><tspan x="15" y="581.58">Source: World Bank, World Development Indicators (WDI)</tspan></text></g><text font-size="12.60" x="527.9" y="581.6"><tspan x="527.938" y="581.58"><a target='_blank' style='fill: #777;' href='https://ourworldindata.org/technology-adoption/'>OurWorldInData.org/technology-adoption/</a> • <a style="fill: #777;" href="http://creativecommons.org/licenses/by-sa/4.0/deed.en_US" target="_blank">CC BY-SA</a></tspan></text></g></g></svg>
